component-icons/svg/toolbar.svg

<?xml version="1.0" encoding="utf-8"?>
<!-- Generator: Adobe Illustrator 24.2.3, SVG Export Plug-In . SVG Version: 6.00 Build 0)  -->
<svg version="1.1" id="Layer_1" xmlns="http://www.w3.org/2000/svg" xmlns:xlink="http://www.w3.org/1999/xlink" x="0px" y="0px"
	 width="24px" height="24px" viewBox="0 0 24 24" enable-background="new 0 0 24 24" xml:space="preserve">
<path d="M0,0v24h20l4-4V0H0z M22,19.2L19.2,22H2V10h20V19.2z M22,8H2V2h20V8z M20,4h-4v2h4V4z M8,4H4v2h4V4z M14,4h-4v2h4V4z"/>
</svg>

<svg id="Layer_1" data-name="Layer 1" xmlns="http://www.w3.org/2000/svg" viewBox="0 0 24 24">
  <defs>
    <style>
      .cls-1 {
        fill: gray;
      }
    </style>
  </defs>
  <title>toolbar</title>
  <path class="cls-1" d="M0,0V24H20l4-4V0ZM22,19.17,19.17,22H2V10H22ZM22,8H2V2H22ZM20,4H16V6h4ZM8,4H4V6H8Zm6,0H10V6h4Z"/>
</svg>
